X:82
T:Grasshopper,The. JJo6.88
B:J.Johnson Choice Collection Vol 6, 1751
Z:vmp.Ruairidh Greig 2015 www.village-music-project.org.uk
M:C|
L:1/8
Q:1/4=100
K:Bb
(f/e/d) (d/c/B)B2F2|Bdced2c2|df=egf2B2|A/B/c/d/ edc4|
(3fed (3dcBB2c2|dbag =e3f|g=efc dBAG|A2G2F4:|
|:(3fed =B2(cGc)G|(3edc {B}A2BFBF|(3fedb2(3fedb2|gfed {d}c4|
FAd2 Ace2|Bdf2 ceg2|(3fed (3dcB gedc|G2A2B4:|

